Numix-GalliumOS/24/status/battery-charged.svg

<?xml version="1.0" encoding="UTF-8" standalone="no"?>
<svg
   xmlns:dc="http://purl.org/dc/elements/1.1/"
   xmlns:cc="http://creativecommons.org/ns#"
   xmlns:rdf="http://www.w3.org/1999/02/22-rdf-syntax-ns#"
   xmlns:svg="http://www.w3.org/2000/svg"
   xmlns="http://www.w3.org/2000/svg"
   xmlns:sodipodi="http://sodipodi.sourceforge.net/DTD/sodipodi-0.dtd"
   xmlns:inkscape="http://www.inkscape.org/namespaces/inkscape"
   width="24"
   viewBox="0 0 24 24"
   height="24"
   id="svg2"
   version="1.1"
   inkscape:version="0.91 r"
   sodipodi:docname="xfpm-ups-charged.svg">
  <metadata
     id="metadata12">
    <rdf:RDF>
      <cc:Work
         rdf:about="">
        <dc:format>image/svg+xml</dc:format>
        <dc:type
           rdf:resource="http://purl.org/dc/dcmitype/StillImage" />
      </cc:Work>
    </rdf:RDF>
  </metadata>
  <defs
     id="defs10" />
  <sodipodi:namedview
     pagecolor="#ffffff"
     bordercolor="#666666"
     borderopacity="1"
     objecttolerance="10"
     gridtolerance="10"
     guidetolerance="10"
     inkscape:pageopacity="0"
     inkscape:pageshadow="2"
     inkscape:window-width="1280"
     inkscape:window-height="998"
     id="namedview8"
     showgrid="true"
     inkscape:zoom="24.332182"
     inkscape:cx="11.552269"
     inkscape:cy="10.073747"
     inkscape:window-x="0"
     inkscape:window-y="0"
     inkscape:window-maximized="1"
     inkscape:current-layer="svg2">
    <inkscape:grid
       type="xygrid"
       id="grid3109"
       empspacing="5"
       visible="true"
       enabled="true"
       snapvisiblegridlinesonly="true" />
  </sodipodi:namedview>
  <path
     style="fill:#ececec;fill-opacity:1"
     d="M 9,4 9,6 6,6 6,20 18,20 18,6 15,6 15,4 9,4 z M 15.125,9 17,10.84375 10.75,17 C 9.4679486,15.737672 8.2820513,14.574827 7,13.3125 L 8.875,11.46875 10.75,13.3125 15.125,9 z"
     id="path2991"
     inkscape:connector-curvature="0" />
</svg>

<svg xmlns="http://www.w3.org/2000/svg" viewBox="0 0 24 24">
 <path d="m 9 4 0 2 -3 0 0 14 12 0 0 -14 -3 0 0 -2 -6 0 z m 6.125 5 1.875 1.844 -6.25 6.156 c -1.282 -1.262 -2.468 -2.425 -3.75 -3.688 l 1.875 -1.844 1.875 1.844 4.375 -4.313 z" style="fill:#ececec;fill-opacity:1"/>
</svg>
